!!!OTL: ES STEHT EIN WIRTHSHAUS AN DER LAHN
!!!ARE: Europa, Mitteleuropa, Deutschland, Duesseldorf
!!!SCT: Z0174
!!!YEM: Copyright 1995, estate of Helmut Schaffrath.
**kern
*ICvox
*Ivox
*M3/4
*k[b-]
*F:
{8c
8f
8g
=1
4a
4f
8g
8g
=2
4f
8r}
{8ff
8ee
8dd
=3
4ee
4cc
8g
8g
=4
4cc
8r}
{8cc
8cc
8cc
=5
8cc
8ff
4ff
8dd
8dd
=6
8dd
8dd
8ff
8dd}
{8dd
8cc
=7
4cc
8a
8b-
8cc
8cc
=8
16dd
16cc
16b-
16a
4b-
4cc
=9
4a
8r}
{8cc
8cc
8cc
=10
8cc
8ff
4ff
8dd
8dd
=11
8dd
8dd
8ff
8dd}
{8dd
8cc
=12
4cc
8a
8b-
8cc
8cc
=13
16dd
16cc
16b-
16a
4b-
4cc
=14
4a
8r}
==
!!!AGN: Schiffer -, Handwerker - Lied
!!!ONB: ESAC (Essen Associative Code) Database: ZUCCAL
!!!AMT: simple triple
!!!AIN: vox
!!!EED: Helmut Schaffrath
!!!EEV: 1.0
*-
